theme/assets/img/android/obtainium.svg

<svg width="128" height="128" version="1.1" viewBox="0 0 33.867 33.867" xmlns="http://www.w3.org/2000/svg"><defs><linearGradient id="_Linear1" x2="1" gradientTransform="matrix(96.087 110.77 -110.77 96.087 217.55 321.52)" gradientUnits="userSpaceOnUse"><stop stop-color="#9b58dc" offset="0"/><stop stop-color="#321c92" offset="1"/></linearGradient></defs><g transform="matrix(.20642 0 0 .20642 -41.161 -57.382)" clip-rule="evenodd" fill-rule="evenodd"><path d="m311.47 434.34c-2.073-1.099-14.192-7.814-70.958-39.32-15.797-8.768-31.006-17.199-33.798-18.736-6.342-3.491-7.317-4.35-7.317-6.45 0-1.099 2.531-8.142 8.464-23.547 4.654-12.088 8.771-22.681 9.147-23.54 0.857-1.956 2.239-3.617 3.588-4.315 1.263-0.653 32.827-12.18 34.436-12.576 1.739-0.428 3.239 0.396 4.124 2.265 0.424 0.897 2.188 5.526 3.92 10.286 1.732 4.761 4.31 11.8 5.729 15.643 3.252 8.805 3.373 10.052 1.109 11.389-0.6 0.354-4.504 1.886-8.674 3.404-4.171 1.517-8.151 3.089-8.844 3.492-1.6 0.931-1.84 2.368-0.59 3.523 0.496 0.459 8.516 5.034 17.821 10.166 26.008 14.344 24.564 13.695 26.299 11.823 0.85-0.917 16.388-40.439 17.28-43.952 0.381-1.501 0.339-1.71-0.474-2.367-1.11-0.899-0.949-0.938-11.162 2.673-10.118 3.577-11.082 3.653-12.437 0.978-0.712-1.405-11.61-31.337-12.287-33.745-0.438-1.558 0.098-3.038 1.409-3.897 0.545-0.357 8.476-3.4 17.624-6.762 13.576-4.988 17.031-6.118 18.797-6.146 2.278-0.036 2.577 0.12 44.348 23.233 2.895 1.601 4.439 3.287 4.439 4.845 0 0.618-10.357 28.091-23.016 61.052-17.853 46.484-23.242 60.126-24.022 60.812-1.326 1.168-2.413 1.117-4.955-0.231z" fill="url(#_Linear1)" fill-rule="nonzero" stroke="url(#_Linear1)" stroke-width=".39px"/></g></svg>

<?xml version="1.0" encoding="UTF-8" standalone="no"?>
<!DOCTYPE svg PUBLIC "-//W3C//DTD SVG 1.1//EN" "http://www.w3.org/Graphics/SVG/1.1/DTD/svg11.dtd">
<svg width="100%" height="100%" viewBox="0 0 128 128" version="1.1" xmlns="http://www.w3.org/2000/svg" xmlns:xlink="http://www.w3.org/1999/xlink" xml:space="preserve" xmlns:serif="http://www.serif.com/" style="fill-rule:evenodd;clip-rule:evenodd;">
    <g id="path239" transform="matrix(0.780176,0,0,0.780176,-155.567,-216.875)">
        <path d="M311.473,434.341C309.4,433.242 297.281,426.527 240.515,395.021C224.718,386.253 209.509,377.822 206.717,376.285C200.375,372.794 199.4,371.935 199.4,369.835C199.4,368.736 201.931,361.693 207.864,346.288C212.518,334.2 216.635,323.607 217.011,322.748C217.868,320.792 219.25,319.131 220.599,318.433C221.862,317.78 253.426,306.253 255.035,305.857C256.774,305.429 258.274,306.253 259.159,308.122C259.583,309.019 261.347,313.648 263.079,318.408C264.811,323.169 267.389,330.208 268.808,334.051C272.06,342.856 272.181,344.103 269.917,345.44C269.317,345.794 265.413,347.326 261.243,348.844C257.072,350.361 253.092,351.933 252.399,352.336C250.799,353.267 250.559,354.704 251.809,355.859C252.305,356.318 260.325,360.893 269.63,366.025C295.638,380.369 294.194,379.72 295.929,377.848C296.779,376.931 312.317,337.409 313.209,333.896C313.59,332.395 313.548,332.186 312.735,331.529C311.625,330.63 311.786,330.591 301.573,334.202C291.455,337.779 290.491,337.855 289.136,335.18C288.424,333.775 277.526,303.843 276.849,301.435C276.411,299.877 276.947,298.397 278.258,297.538C278.803,297.181 286.734,294.138 295.882,290.776C309.458,285.788 312.913,284.658 314.679,284.63C316.957,284.594 317.256,284.75 359.027,307.863C361.922,309.464 363.466,311.15 363.466,312.708C363.466,313.326 353.109,340.799 340.45,373.76C322.597,420.244 317.208,433.886 316.428,434.572C315.102,435.74 314.015,435.689 311.473,434.341L311.473,434.341Z" style="fill:url(#_Linear1);fill-rule:nonzero;stroke:url(#_Linear2);stroke-width:0.39px;"/>
    </g>
    <defs>
        <linearGradient id="_Linear1" x1="0" y1="0" x2="1" y2="0" gradientUnits="userSpaceOnUse" gradientTransform="matrix(96.0874,110.767,-110.767,96.0874,217.55,321.519)"><stop offset="0" style="stop-color:rgb(155,88,220);stop-opacity:1"/><stop offset="1" style="stop-color:rgb(50,28,146);stop-opacity:1"/></linearGradient>
        <linearGradient id="_Linear2" x1="0" y1="0" x2="1" y2="0" gradientUnits="userSpaceOnUse" gradientTransform="matrix(96.0874,110.767,-110.767,96.0874,217.55,321.519)"><stop offset="0" style="stop-color:rgb(155,88,220);stop-opacity:1"/><stop offset="1" style="stop-color:rgb(50,28,146);stop-opacity:1"/></linearGradient>
    </defs>
</svg>
